X:077 
T:Hare in the Corn (2) 
B:CRE3.042 (Giorria san Arbhar 2)
F:file ID: cre.3/077hare_c2
R:slide
Q:180
M:12/8
L:1/8
K:G
A|B2B A2G B2B AGA|B2e d2B ABA AGA|
B2B A2G Bc/d/B AGA|1 B2e d2B G3 B2:|
[2 B2e d2B G3G|:Bd|e3 edB e2f g2B|
BAB d2B ABA ABd|ef/g/e edd e2f g2B|
[1 BAB d2B G3 G:|2 BAB d2B G3 G3 |]

%%%

